svg/color/coston.svg

<svg width="40" height="40" viewBox="0 0 40 40" fill="none" xmlns="http://www.w3.org/2000/svg">
<g clip-path="url(#clip0_821_4119)">
<path d="M20 0C31.0457 0 40 8.9543 40 20C40 31.0457 31.0457 40 20 40C8.95431 40 7.90517e-06 31.0457 0 20C6.58765e-07 8.95431 8.95431 1.97595e-06 20 0Z" fill="#F9D4D7"/>
<path d="M26 6C30.4183 6 34 9.58172 34 14V26C34 30.4183 30.4183 34 26 34H14C9.58172 34 6 30.4183 6 26V14C6 9.58172 9.58172 6 14 6H26Z" fill="#E32A36"/>
<path d="M20.7181 22.6675C20.4282 22.64 20.2107 22.5238 20.1229 22.3482C20.0842 22.2691 20.0761 22.24 20.068 22.1406V22.0599L20.0212 22.3054C19.9954 22.441 19.9696 22.5738 19.9647 22.6018L19.9486 22.6518H19.6764H19.4041V22.6227C19.4202 22.5808 19.4848 22.2024 19.4848 22.1971C19.4848 22.1971 19.4041 22.1971 19.306 22.1955H19.1273L19.0853 22.4223L19.0433 22.6492H18.7734C18.5484 22.6492 18.5035 22.6492 18.5035 22.6331C18.5035 22.6331 18.5536 22.3527 18.6165 22.0284C18.6779 21.7041 18.7279 21.4376 18.7263 21.4361C18.7263 21.4345 18.5557 21.7067 18.3508 22.0407L17.9786 22.6481H17.7344C17.6004 22.6481 17.4895 22.6468 17.4888 22.6481C17.4882 22.6466 17.4727 22.4867 17.4646 22.2939C17.4485 22.0626 17.4372 21.9411 17.4307 21.9385C17.4307 21.9369 17.4065 21.9724 17.3904 22.0257C17.3742 22.0757 17.3016 22.237 17.229 22.3837L17.0966 22.6508H16.8566H16.6167L16.6006 22.6105C16.5844 22.5604 16.3114 21.3608 16.3114 21.3533C16.3114 21.3533 16.4422 21.3533 16.603 21.3533H16.8947L16.9124 21.6604C16.9382 22.077 16.9431 22.1328 16.9512 22.1328C16.9512 22.1328 16.9721 22.0957 16.9883 22.0505C17.0044 22.0053 17.0851 21.8302 17.1676 21.6608L17.3177 21.3529H17.5381H17.7583L17.7873 21.7185C17.818 22.1064 17.8228 22.1409 17.8357 22.1257C17.8357 22.1257 17.8567 22.0773 17.8729 22.0305C17.889 21.9837 17.9649 21.8121 18.0427 21.6495L18.1831 21.354H18.4767C18.6382 21.3524 18.8861 21.3524 19.0275 21.3537H19.2847L19.2508 21.532C19.2314 21.6305 19.2136 21.7286 19.2088 21.7509V21.7913H19.3878H19.567L19.6089 21.575L19.6509 21.3588H19.9219C20.0704 21.3588 20.193 21.3604 20.193 21.3588C20.193 21.3604 20.1688 21.4896 20.1397 21.6428C20.1106 21.7961 20.0864 21.928 20.0864 21.9348C20.0866 21.9348 20.1026 21.9186 20.1123 21.8847C20.1558 21.7782 20.2059 21.7072 20.3005 21.6173C20.5074 21.4205 20.7868 21.3241 21.1165 21.3357C21.3679 21.3519 21.5353 21.4052 21.6688 21.5365C21.7738 21.6399 21.8077 21.7173 21.8157 21.872V21.9898L21.8738 21.6801C21.9061 21.5098 21.9352 21.3667 21.9384 21.3624C21.9384 21.3624 22.0708 21.3624 22.223 21.3624H22.5001L22.4243 21.7627C22.3823 21.9829 22.3452 22.1811 22.3403 22.2031V22.2434H22.5821C22.7712 22.2434 22.8228 22.2434 22.819 22.2596C22.819 22.2757 22.798 22.3612 22.777 22.4678L22.7415 22.6626H22.2211C21.8017 22.6626 21.7005 22.6626 21.7005 22.6465C21.7005 22.6465 21.7247 22.506 21.7537 22.3516C21.7828 22.1966 21.8054 22.065 21.8022 22.0584C21.8022 22.0584 21.8022 22.0568 21.8022 22.0746C21.8017 22.0907 21.7796 22.1407 21.7537 22.1924C21.6714 22.3558 21.5373 22.4815 21.35 22.5693C21.1673 22.6549 20.9218 22.6985 20.7231 22.6791L20.7181 22.6675ZM21.0443 22.2355C21.2498 22.158 21.314 21.8889 21.1492 21.7926C21.0249 21.7199 20.8464 21.7458 20.7352 21.8507C20.6496 21.933 20.619 22.0539 20.6642 22.1451C20.7174 22.2549 20.8847 22.2952 21.0443 22.2355ZM21.8144 22.0105C21.8139 22.0266 21.8144 22.0282 21.8144 22.0266C21.8144 22.0266 21.8144 22.0105 21.8154 22.0056L21.8144 22.0105ZM20.0848 21.9572C20.0843 21.9734 20.0848 21.975 20.0848 21.9734C20.0848 21.9734 20.0848 21.9572 20.0856 21.9524L20.0848 21.9572ZM24.3587 22.6628C24.2538 22.6466 24.0943 22.6144 24.0104 22.5837C23.9361 22.5562 23.9426 22.553 23.9265 22.624V22.6531H23.3926H22.8588V22.6289C22.875 22.5918 23.0993 21.3645 23.0993 21.3571C23.0993 21.3571 23.3363 21.3571 23.6261 21.3571H24.1529L24.1223 21.5198C24.1061 21.6085 24.09 21.6886 24.0867 21.696C24.0867 21.7122 24.0238 21.7122 23.8425 21.7122H23.6031V21.7525C23.6031 21.7751 23.587 21.8042 23.587 21.8171V21.8413H23.807C23.9762 21.8413 24.0269 21.8413 24.0264 21.8575C24.0261 21.8736 24.0102 21.9382 23.9973 22.0202L23.9683 22.1703H23.7478H23.5274L23.5113 22.2236C23.4919 22.3156 23.4709 22.3091 23.7453 22.3091C23.9723 22.3091 23.9909 22.3106 23.9905 22.3285C23.9902 22.3446 23.9744 22.3898 23.9696 22.4431C23.9534 22.4964 23.9502 22.5399 23.9518 22.5416C23.9518 22.5432 24.0018 22.4721 24.06 22.3817C24.1181 22.293 24.1681 22.2147 24.1729 22.2089C24.1729 22.2089 24.2004 22.2089 24.2311 22.2315C24.3586 22.3138 24.4969 22.3477 24.6141 22.3251C24.6884 22.3089 24.7352 22.2299 24.6835 22.2024C24.6674 22.2024 24.598 22.1798 24.5198 22.1653C24.3152 22.1298 24.2164 22.0797 24.1625 21.989C24.1382 21.9487 24.1334 21.9277 24.135 21.8647C24.1353 21.7985 24.135 21.7776 24.1738 21.7098C24.2625 21.5322 24.4537 21.4061 24.7166 21.3527C24.8361 21.3285 25.0709 21.3365 25.1823 21.3688C25.2969 21.4011 25.3809 21.4415 25.3713 21.4576C25.3713 21.4576 25.3197 21.5383 25.2664 21.6208C25.2131 21.7031 25.1696 21.7709 25.1679 21.7725C25.167 21.774 25.1373 21.7564 25.1034 21.7435C24.9292 21.6547 24.7281 21.6628 24.7168 21.7596C24.7168 21.7968 24.7168 21.8016 24.8893 21.8355C24.9652 21.8516 25.0525 21.8742 25.0845 21.8855C25.2516 21.9485 25.3252 22.0881 25.2763 22.2507C25.2601 22.2781 25.2601 22.3007 25.2601 22.3007C25.2601 22.3007 25.3909 22.0893 25.5486 21.831L25.8336 21.3611L26.1502 21.3612L26.4666 21.3614L26.6054 21.9458C26.6813 22.2673 26.7458 22.5364 26.7507 22.5438C26.7507 22.5438 26.8072 22.2943 26.8685 21.9725C26.9298 21.651 26.9815 21.3819 26.9847 21.3745C26.9847 21.3583 27.0558 21.3583 27.2719 21.3583C27.536 21.3583 27.5541 21.3596 27.5489 21.3777C27.5489 21.3939 27.5085 21.5766 27.4666 21.7968C27.4246 22.0169 27.3875 22.2079 27.3842 22.2211V22.2453H27.6269C27.859 22.2453 27.8693 22.2463 27.8643 22.2647C27.8643 22.2809 27.8433 22.3696 27.824 22.473L27.7884 22.661H26.9855H26.1828L26.1667 22.5787L26.1505 22.4964H25.9345H25.7185L25.675 22.5819L25.6314 22.6675H25.3324H25.0335L25.0851 22.5851C25.1126 22.5399 25.1481 22.4834 25.1626 22.4592L25.1884 22.4173L25.1239 22.477C25.0077 22.5835 24.8372 22.6534 24.634 22.6784C24.5258 22.6946 24.4682 22.6946 24.351 22.6786L24.3587 22.6628ZM26.1376 22.1114C26.1376 22.071 26.1215 21.9806 26.1215 21.9085C26.1215 21.8148 26.1053 21.7777 26.1021 21.7777C26.0859 21.7777 25.9156 22.1472 25.9156 22.1725C25.9156 22.1725 25.9592 22.1887 26.0286 22.1887H26.1416V22.116L26.1376 22.1114ZM10.4259 22.4876V22.3222H13.4146C16.2517 22.3222 16.4036 22.3232 16.4089 22.3416C16.4089 22.3642 16.48 22.6426 16.48 22.6494C16.48 22.6494 15.1179 22.6494 13.4532 22.6494H10.4264V22.4838L10.4259 22.4876ZM27.8953 22.6394C27.8953 22.6232 27.955 22.339 28.0212 21.988L28.1423 21.3501H28.6696C29.1667 21.3501 29.1965 21.3512 29.1915 21.3695C29.1915 21.3856 29.1738 21.4583 29.1576 21.5456L29.1286 21.7038H28.8861H28.6438V21.7538C28.6438 21.7813 28.6277 21.8103 28.6277 21.8184C28.6277 21.8345 28.66 21.8345 28.8422 21.8345C28.9633 21.8345 29.0622 21.8345 29.0624 21.8345C29.0625 21.8345 29.0462 21.9136 29.0333 22.0001L29.0043 22.1583H28.7839H28.5636L28.5474 22.2197C28.5474 22.2536 28.5313 22.2842 28.5313 22.2891C28.5313 22.2891 28.6411 22.3052 28.7768 22.3052C29.0036 22.3052 29.0223 22.3065 29.022 22.3246C29.0217 22.3407 29.0059 22.4134 28.9914 22.498L28.9623 22.6529H28.4252C27.9973 22.6545 27.8895 22.6529 27.8934 22.6368L27.8953 22.6394ZM10.4259 22.0121V21.8523H13.3616H16.2976V21.8765C16.2976 21.8926 16.3153 21.954 16.3298 22.0186C16.346 22.0831 16.3589 22.1445 16.3621 22.1541C16.3621 22.1719 16.2217 22.1735 13.3938 22.1735H10.4196V22.0137L10.4259 22.0121ZM10.4259 21.5262V21.3501H13.3027H16.1797L16.1959 21.3905C16.2152 21.4631 16.2604 21.6733 16.2604 21.6883C16.2604 21.7044 15.802 21.7044 13.3457 21.7044H10.4311V21.5282L10.4259 21.5262ZM15.1697 20.9861C14.6401 20.9393 14.2007 20.7391 13.9597 20.4361C13.8031 20.24 13.7319 20.0261 13.7328 19.7593C13.7328 19.1759 14.1071 18.6313 14.7286 18.3038C14.9859 18.1682 15.2817 18.0754 15.6254 18.0226C15.7996 17.9951 16.2223 17.9951 16.3941 18.0224C17.0921 18.1306 17.5487 18.4686 17.6821 18.9746C17.7208 19.1199 17.7224 19.3579 17.6821 19.5157C17.6127 19.8276 17.4824 20.0709 17.2583 20.3022C17.088 20.478 16.9289 20.5934 16.6945 20.7109C16.254 20.932 15.6913 21.0332 15.1634 20.9861H15.1697ZM15.7562 20.0736C15.8417 20.0575 15.996 20.009 16.0792 19.9574C16.3121 19.8121 16.438 19.5548 16.3897 19.3236C16.3639 19.2026 16.3074 19.117 16.2086 19.0513C15.9994 18.9125 15.6532 18.9173 15.3918 19.0675C15.2901 19.124 15.1587 19.2587 15.11 19.3567C14.9776 19.6227 15.0406 19.8925 15.2585 20.0076C15.4054 20.0851 15.5323 20.1028 15.7555 20.0786L15.7562 20.0736ZM18.3905 20.9906C18.0698 20.968 17.6822 20.8841 17.4215 20.783C17.3586 20.7588 17.3053 20.7378 17.3037 20.7362C17.3037 20.7346 17.4231 20.5503 17.5746 20.3269C17.751 20.0658 17.8533 19.9233 17.8612 19.9285C17.8612 19.9285 17.9145 19.964 17.9646 19.9963C18.1964 20.1496 18.4188 20.2221 18.6585 20.2219C18.885 20.2219 19.032 20.1428 19.0322 20.0206C19.0322 19.9335 18.987 19.9141 18.6561 19.8625C18.3886 19.8205 18.2911 19.7979 18.1705 19.7495C17.7494 19.5813 17.6252 19.251 17.8261 18.8321C17.9842 18.5035 18.3308 18.2426 18.7988 18.1014C19.3491 17.9351 19.9902 17.9738 20.4653 18.1998L20.5686 18.2499L20.3281 18.6129C20.1957 18.8124 20.0834 18.9772 20.0784 18.979C20.0784 18.979 20.0251 18.958 19.9686 18.929C19.7773 18.8273 19.5914 18.7772 19.3989 18.774C19.2088 18.774 19.0897 18.8208 19.0612 18.916C19.0451 18.9516 19.0451 18.9612 19.0612 18.9855C19.0903 19.0307 19.15 19.0484 19.4435 19.1065C19.7305 19.163 19.8604 19.2001 19.9889 19.2631C20.1529 19.3438 20.2787 19.4671 20.3268 19.5956C20.3994 19.7895 20.3607 20.0499 20.2267 20.2759C20.1056 20.4788 19.9118 20.6437 19.6403 20.774C19.331 20.9225 18.9554 21.0008 18.5763 20.996C18.4972 20.995 18.4106 20.996 18.3841 20.996L18.3905 20.9906ZM24.1997 20.9906C23.6343 20.9309 23.1902 20.6565 22.992 20.2428C22.7592 19.7571 22.9226 19.1317 23.4047 18.6642C23.5894 18.4852 23.7595 18.3656 23.9904 18.2528C24.3978 18.0537 24.8633 17.9708 25.3303 18.0142C25.5219 18.0319 25.8532 18.0933 25.8937 18.1191C25.9098 18.1191 25.8937 18.245 25.8211 18.6646C25.7742 18.96 25.7355 19.2063 25.7355 19.2119C25.7355 19.2119 25.7129 19.1958 25.6855 19.1796C25.566 19.0812 25.4367 19.0114 25.2909 18.9667C25.207 18.9409 25.1796 18.9377 25.0369 18.9377C24.8612 18.9372 24.7807 18.9538 24.6427 19.0152C24.3278 19.1588 24.1471 19.4599 24.2244 19.7143C24.2874 19.9188 24.51 20.0578 24.7967 20.07C25.0495 20.0862 25.3129 20.0055 25.5502 19.8534C25.5825 19.8324 25.6115 19.8163 25.6131 19.8179C25.6131 19.8179 25.3754 20.8755 25.3657 20.8852C25.3495 20.9014 25.1347 20.9449 24.9891 20.9627C24.6963 20.9982 24.3928 21.0095 24.2001 20.9885L24.1997 20.9906ZM27.2041 20.9906C26.9303 20.9632 26.8027 20.939 26.628 20.8825C26.1791 20.7372 25.87 20.4652 25.7583 20.1157C25.7114 19.9704 25.7001 19.8747 25.7082 19.7067C25.7082 19.5469 25.7373 19.4318 25.7905 19.283C26.069 18.498 27.027 17.9625 28.0856 18C28.6343 18.0194 29.0717 18.1808 29.362 18.471C29.5676 18.6765 29.6701 18.903 29.6838 19.1827C29.7048 19.5964 29.5353 20.0095 29.2127 20.3293C28.8714 20.6681 28.3904 20.8875 27.808 20.9696C27.6918 20.9858 27.2971 20.9987 27.2041 20.9906ZM27.8052 20.0566C28.089 19.9921 28.2976 19.7958 28.3579 19.5388C28.4241 19.2592 28.2595 19.0194 27.9639 18.9629C27.6834 18.9096 27.3955 18.9935 27.2041 19.1864C26.9973 19.3943 26.9512 19.6981 27.0976 19.8897C27.2235 20.0544 27.5158 20.1233 27.8052 20.0566ZM28.9993 20.9851C28.9105 20.9642 28.8685 20.906 28.8782 20.8197C28.8943 20.7261 28.988 20.6458 29.1047 20.6361C29.2435 20.62 29.3397 20.7185 29.3027 20.831C29.2672 20.9407 29.1211 21.0134 28.9993 20.9851ZM29.177 20.9254C29.227 20.8964 29.2593 20.8431 29.2593 20.7898C29.2587 20.714 29.2109 20.6768 29.1156 20.6768C29.0285 20.6771 28.9752 20.7075 28.9403 20.7753C28.9177 20.8221 28.9161 20.8318 28.9242 20.8689C28.9403 20.9028 28.9452 20.9157 28.9823 20.9335C29.0372 20.9593 29.1227 20.9545 29.1742 20.9173L29.177 20.9254ZM28.9931 20.8834C28.9934 20.8673 28.9931 20.8334 29.0093 20.7947L29.0254 20.7253H29.0948C29.1788 20.7253 29.2078 20.7414 29.1965 20.7801C29.1965 20.7963 29.1771 20.814 29.1626 20.8205C29.1384 20.8366 29.1384 20.8366 29.1465 20.8625C29.1658 20.9012 29.1658 20.9044 29.1465 20.9044C29.1303 20.9044 29.119 20.8883 29.1093 20.8657C29.0884 20.8173 29.0496 20.8173 29.0416 20.8663C29.0416 20.9018 28.998 20.9196 28.9996 20.8857L28.9931 20.8834ZM29.1513 20.7801C29.1513 20.764 29.1675 20.7624 29.1513 20.7591C29.1513 20.7591 29.0512 20.743 29.0512 20.7591C29.0512 20.7591 29.0512 20.7753 29.0512 20.7801C29.0512 20.7963 29.0512 20.7963 29.0932 20.7963C29.1206 20.7963 29.1449 20.7963 29.1513 20.7801ZM20.5089 20.9286C20.5089 20.9125 20.6477 20.4671 20.8094 19.9345C20.9712 19.4016 21.101 18.9632 21.0979 18.9601C21.0979 18.9601 20.9358 18.9606 20.7445 18.9601C20.5531 18.9763 20.3946 18.9763 20.392 18.9763C20.392 18.9763 20.4517 18.7619 20.5292 18.5054L20.6696 18.0391H22.0272H23.3847L23.3492 18.1585C23.3298 18.2247 23.2653 18.4347 23.2072 18.6257L23.1022 18.9725H22.8632C22.7324 18.9725 22.5717 18.9725 22.5076 18.9725H22.3913L22.0901 19.9656L21.7888 20.9585H21.1458H20.5027V20.9327L20.5089 20.9286ZM12.0009 20.9286C11.4543 20.8802 11.018 20.6967 10.7082 20.3869C10.5374 20.216 10.4357 20.0521 10.3694 19.8405C10.3274 19.7081 10.3145 19.6084 10.3145 19.4415C10.315 19.1911 10.371 18.963 10.4919 18.7217C10.5952 18.5149 10.7029 18.3656 10.8795 18.1829C11.4541 17.589 12.3521 17.2584 13.2356 17.3157C13.4512 17.3319 13.608 17.3496 13.7783 17.3819C13.9236 17.4094 14.0588 17.4432 14.07 17.4545C14.07 17.4545 13.87 18.7661 13.8606 18.7748C13.8595 18.7761 13.8219 18.749 13.775 18.7151C13.3804 18.4165 12.9365 18.3535 12.5022 18.5346C12.1533 18.6799 11.9137 19.0176 11.9604 19.2983C11.9991 19.5327 12.1917 19.7128 12.4803 19.7851C12.6094 19.8174 12.8558 19.819 13.0141 19.7851C13.2196 19.7464 13.4769 19.6447 13.6467 19.5341C13.6838 19.5099 13.7129 19.4954 13.7129 19.5018C13.7129 19.5018 13.6451 19.7976 13.5628 20.1459C13.4805 20.4943 13.4127 20.7822 13.4127 20.7859C13.4127 20.8085 13.1253 20.8667 12.8735 20.8941C12.57 20.9264 12.1797 20.9409 11.9981 20.9248L12.0009 20.9286Z" fill="white"/>
</g>
<defs>
<clipPath id="clip0_821_4119">
<rect width="40" height="40" fill="white"/>
</clipPath>
</defs>
</svg>

<svg xmlns="http://www.w3.org/2000/svg" width="40" height="40" fill="none" viewBox="0 0 40 40"><g clip-path="url(#coston_svg-a)"><path fill="#F9D4D7" d="M20 0c11.046 0 20 8.954 20 20s-8.954 20-20 20S0 31.046 0 20 8.954 0 20 0"/><path fill="#E32A36" d="M26 6a8 8 0 0 1 8 8v12a8 8 0 0 1-8 8H14a8 8 0 0 1-8-8V14a8 8 0 0 1 8-8z"/><path fill="#fff" d="M20.718 22.668c-.29-.028-.507-.144-.595-.32a.45.45 0 0 1-.055-.207v-.081l-.047.245-.056.297-.016.05h-.545v-.03c.016-.041.08-.42.08-.425l-.178-.002h-.179l-.042.227-.042.227h-.27c-.225 0-.27 0-.27-.016 0 0 .05-.28.113-.605.062-.324.112-.59.11-.592 0-.002-.17.27-.375.605l-.372.607h-.49c0-.001-.016-.161-.024-.354a3 3 0 0 0-.034-.355.3.3 0 0 0-.04.087 5 5 0 0 1-.162.358l-.132.267h-.48l-.016-.04c-.017-.05-.29-1.25-.29-1.258h.584l.017.307c.026.417.031.473.04.473 0 0 .02-.037.036-.082s.097-.22.18-.39l.15-.308h.44l.03.365c.03.388.035.423.048.408 0 0 .02-.049.037-.096.016-.046.092-.218.17-.38l.14-.296h.294c.161-.002.41-.002.55 0h.258l-.034.178-.042.219v.04h.358l.042-.216.042-.216h.542l-.053.284c-.03.153-.054.285-.054.292 0 0 .017-.016.026-.05a.7.7 0 0 1 .189-.268c.206-.197.486-.293.816-.281.25.016.418.07.552.2a.43.43 0 0 1 .147.336v.118l.058-.31c.032-.17.061-.313.064-.318h.562l-.076.4-.084.441v.04h.242c.19 0 .24 0 .237.017 0 .016-.021.101-.042.208l-.036.195h-.52c-.42 0-.52 0-.52-.017 0 0 .024-.14.053-.294.029-.155.051-.287.048-.294v.017a.82.82 0 0 1-.452.495 1.3 1.3 0 0 1-.627.11zm.326-.433c.206-.077.27-.346.105-.442a.36.36 0 0 0-.414.058c-.085.082-.116.203-.07.294.052.11.22.15.38.09m.77-.224v.016l.001-.021zm-1.73-.054v.016s0-.016.002-.02zm4.275.706a2 2 0 0 1-.349-.08c-.074-.027-.067-.03-.084.041v.03H22.86v-.025c.016-.037.24-1.265.24-1.272h1.054l-.03.163a3 3 0 0 1-.036.176c0 .016-.063.016-.244.016h-.24v.04c0 .023-.016.052-.016.065v.024h.22c.17 0 .22 0 .22.017 0 .016-.017.08-.03.162l-.029.15h-.44l-.017.054c-.02.092-.04.085.234.085.227 0 .246.002.245.02 0 .016-.016.06-.02.114a.3.3 0 0 0-.018.099c0 .001.05-.07.108-.16l.113-.173s.027 0 .058.023a.54.54 0 0 0 .383.093c.074-.016.121-.095.07-.123-.017 0-.086-.022-.164-.037-.205-.035-.304-.085-.357-.176-.025-.04-.03-.061-.028-.124 0-.066 0-.087.039-.155.088-.178.28-.304.543-.357.12-.025.354-.017.465.016.115.032.199.073.19.089l-.106.163-.098.152c-.001.001-.03-.017-.065-.03-.174-.088-.375-.08-.386.017 0 .037 0 .042.172.075.076.017.163.04.195.05.168.063.241.203.192.366-.016.027-.016.05-.016.05l.289-.47.285-.47h.633l.138.585c.076.321.14.59.146.598 0 0 .056-.25.117-.572s.114-.59.117-.598c0-.016.07-.016.287-.016.264 0 .282.002.277.02 0 .016-.04.199-.082.419s-.08.41-.083.424v.024h.243c.232 0 .242.001.237.02 0 .016-.02.105-.04.208l-.036.188h-1.605l-.016-.082-.017-.083h-.431l-.044.086-.044.085h-.598l.052-.082.078-.126.025-.042-.064.06a.9.9 0 0 1-.49.201.8.8 0 0 1-.283 0zm1.779-.552c0-.04-.017-.13-.017-.203 0-.093-.016-.13-.019-.13-.016 0-.186.37-.186.395 0 0 .043.016.113.016h.113v-.073zm-15.712.377v-.166h2.989c2.837 0 2.989.001 2.994.02 0 .022.071.3.071.307h-6.054v-.165zm17.47.151c0-.016.059-.3.125-.651l.121-.638h.528c.497 0 .526.001.521.02 0 .016-.017.088-.033.176l-.03.158h-.484v.05c0 .027-.016.056-.016.064 0 .016.032.016.214.016h.22s-.016.08-.029.166l-.029.158h-.44l-.017.062c0 .034-.016.064-.016.07 0 0 .11.015.246.015.227 0 .245.002.245.02 0 .016-.016.088-.03.173l-.03.155h-.537c-.428.002-.535 0-.532-.016zm-17.47-.627v-.16h5.872v.024c0 .017.017.078.032.143l.032.135c0 .018-.14.02-2.968.02H10.42v-.16zm0-.486v-.176h5.754l.016.04c.02.073.064.283.064.298s-.458.016-2.914.016H10.43v-.176zm4.744-.54c-.53-.047-.97-.247-1.21-.55a1.02 1.02 0 0 1-.227-.677c0-.583.374-1.128.996-1.455q.384-.203.896-.281a3.5 3.5 0 0 1 .77 0c.697.108 1.154.446 1.287.952.039.145.04.383 0 .54-.07.313-.2.556-.424.787a1.9 1.9 0 0 1-.563.409 2.94 2.94 0 0 1-1.532.275zm.586-.912c.086-.017.24-.065.323-.117.233-.145.359-.402.31-.633a.4.4 0 0 0-.18-.273c-.21-.138-.556-.134-.817.017a.8.8 0 0 0-.282.289c-.132.266-.07.535.149.65.146.078.273.096.496.072zm2.634.917a3.7 3.7 0 0 1-1.086-.255c0-.001.12-.186.27-.41.177-.26.28-.403.287-.398 0 0 .053.036.104.068.231.154.454.226.694.226.226 0 .373-.08.373-.201 0-.088-.045-.107-.376-.159-.267-.041-.365-.064-.485-.112-.422-.169-.546-.499-.345-.918.158-.329.505-.59.973-.73.55-.167 1.191-.128 1.666.098l.104.05-.24.363c-.133.2-.246.364-.25.366 0 0-.054-.021-.11-.05a1.24 1.24 0 0 0-.57-.155c-.19 0-.31.047-.338.142-.016.036-.016.045 0 .07.03.045.089.062.383.12.287.057.416.094.545.157.164.08.29.204.338.333.072.194.034.454-.1.68q-.18.304-.587.498a2.4 2.4 0 0 1-1.064.222h-.192zm5.81 0c-.566-.06-1.01-.334-1.208-.748-.233-.486-.07-1.111.413-1.579a2.1 2.1 0 0 1 .585-.411c.408-.2.873-.282 1.34-.239.192.018.523.08.564.105.016 0 0 .126-.073.546l-.086.547s-.022-.016-.05-.032a1.1 1.1 0 0 0-.394-.213.7.7 0 0 0-.254-.03.8.8 0 0 0-.394.078c-.315.144-.496.445-.419.7.063.204.286.343.573.355a1.26 1.26 0 0 0 .753-.217.3.3 0 0 1 .063-.035s-.238 1.057-.247 1.067c-.017.016-.231.06-.377.078a4 4 0 0 1-.789.025zm3.004 0a2.4 2.4 0 0 1-.576-.108c-.449-.146-.758-.418-.87-.767a1 1 0 0 1-.05-.41c0-.16.03-.274.083-.423.278-.785 1.236-1.32 2.295-1.283.548.02.986.18 1.276.471.206.206.308.432.322.712.02.413-.149.826-.471 1.146-.342.34-.823.558-1.405.64-.116.017-.51.03-.604.022m.601-.934c.284-.065.493-.261.553-.518.066-.28-.099-.52-.394-.576a.85.85 0 0 0-.76.223c-.207.208-.253.512-.106.704.126.164.418.233.707.167m1.194.928c-.088-.02-.13-.079-.12-.165.015-.094.109-.174.226-.184.139-.016.235.082.198.195-.036.11-.182.182-.304.154m.178-.06a.16.16 0 0 0 .082-.135q0-.114-.143-.113c-.087 0-.14.03-.176.098-.022.047-.024.057-.016.094.016.034.021.047.058.064.055.026.14.021.192-.016zm-.184-.042c0-.016 0-.05.016-.088l.016-.07h.07c.084 0 .113.016.102.055 0 .016-.02.034-.034.04-.025.017-.025.017-.017.043.02.038.02.041 0 .041-.016 0-.027-.016-.037-.038-.02-.049-.06-.049-.067 0 0 .036-.044.054-.042.02zm.158-.103c0-.016.017-.018 0-.02 0 0-.1-.017-.1 0v.02c0 .016 0 .016.042.016.028 0 .052 0 .058-.016m-8.642.149c0-.016.139-.462.3-.994.162-.533.292-.972.289-.975h-.354c-.19.016-.35.016-.352.016 0 0 .06-.214.137-.47l.14-.467h2.716l-.036.12-.142.467-.105.346h-.711l-.3.994-.302.992h-1.286v-.025zm-8.508 0c-.547-.049-.983-.232-1.293-.542a1.27 1.27 0 0 1-.393-.945c0-.25.056-.479.177-.72.103-.207.21-.356.387-.54.575-.593 1.473-.924 2.357-.866.215.016.372.034.542.066.146.027.28.061.292.072 0 0-.2 1.312-.21 1.32a1 1 0 0 1-.085-.059c-.395-.299-.838-.361-1.273-.18-.349.145-.588.483-.542.763.04.235.232.415.52.487.13.032.376.034.534 0 .206-.039.463-.14.633-.25.037-.025.066-.04.066-.033l-.15.644c-.083.348-.15.636-.15.64 0 .022-.288.08-.54.108a6 6 0 0 1-.875.03z"/></g><defs><clipPath id="coston_svg-a"><path fill="#fff" d="M0 0h40v40H0z"/></clipPath></defs></svg>
